X:1
T:IX. What if I never speede,
T:IX. What if I never speede,
T:John Dowland
C:John Dowland
%%score 1 2 3 4
L:1/8
Q:1/2=120
M:4/4
K:C
V:1 treble nm="Cantus"
V:2 treble nm="Altus"
V:3 treble nm="Tenor"
V:4 bass transpose=-24 nm="Bassus"
V:1
 e2 ee c2 d2 e6 dc x48 :: d2 e3 d c2 B6 c2 x96 :| d2 e2 f2 d2 e6 dc B2 A2 B2 B2 A8 :: %3
w: 1.~What if I ne- ver speede, Shall I|straight yeeld to dis- paire, And|still on so- row feede That * can no losse re- paire.|
w: or shall I change my love, for I|find power to de- part, and|in my rea- son prove I * can com- mand my hart.|
w: 2.~Oft have I dreamed of joy, yet I|ne- ver felt the sweete, But|tir- ed with an- noy my * griefs each oth- er greete.|
w: Oft have I left my hope, as a|wrethc by fate for- lorne. But|Love aimes at one scope, And * loft wil stil re- turne:|
 B2 ^G2 A2 c2 BAGF E2 e3 d d4 ^c2 | d4 z2 d2 e3 d c2 c2 | d3 c B2 B2 c2 z2 A2 z2 | %6
w: 1.~But if she will pit- tie my de- sire, And my love re-|quite, then e- ver shall shee|live my deare de- light. Come,|
w: 2.~He that once loves with a true de- sire ne- ver can de-|part, for Cu- pid is the|king of e- very hart. *|
w: |||
w: |||
 B2 z2 G2 z2 ABcd e2 dc | B2 B2 z2 c2 z2 A2 z2 | B2 z2 G2 ABcd e2 dc B4 A8 :| %9
w: come, come, while I have a heart to de-|sire thee. Come, come,|come, for ei- ther I will love or ad- mire thee.|
w: |||
w: |||
w: |||
V:2
 c2 cB A2 B2 c6 BA B2 c3 B A2 ^G6 A2 A2 G2 A2 G2 G6 GE E2 C D2 B, E2 ^C8 :: %1
w: 1.~What if I ne- ver speede, Shall I straight yeeld to dis- paire, And still on so- row feede That * can no losse * re- paire.|
w: or shall I change my love, for I find power to de- part, and in my rea- son prove I * can com- mand * my hart.|
w: 2.~Oft have I dreamed of joy, yet I ne- ver felt the sweete, But tir- ed with an- noy my * griefs each oth- * er greete.|
w: Oft have I left my hope, as a wretch by fate for- lorne. But Love aimes at one scope, And * loft wil stil * re- turne:|
 ^GGEE E2 A2 GcBAG^F E2 A2 A2 A3 G F2 F2 GG G2 z2 E2 FF F2 z2 F2 G4 z2 A2 z2 F2 z2 G2 z2 EDCB, A,4 A3 A G2 A2 z2 F2 z2 G2 z2 E2 z2 EDCB, A,2 A3 A G2 A8 :| %2
w: 1.~But if she will pit- tie, pit- tie, pit- tie my de- sire, And my love re- quite, then e- ver shall shee live my deare de- light. Come, come, come, while I have a heart to de- sire thee. Come, come, for ei- ther I will love or ad- mire thee.|
w: 2.~He that once loves with a true. a true, a true de- sire ne- ver can de- part, for Cu- pid is the king of e- very hart. * * * * * * * * * * * * * * * * * * * * * * * *|
w: |
w: |
 x32 :: x24 | x16 | x16 | x16 | x14 | x26 :| %9
w: |||||||
w: |||||||
w: |||||||
w: |||||||
V:3
 A2 AG F2 F2 G6 GE G2 G2 E2 E2 E6 E2 DC C4 B,2 C6 B,A, ^G,2 A,2 A,2 G,2 A,8 :: %1
w: 1.~What if I ne- ver speede, Shall I straight yeeld to dis- paire, And still on so- row feede That * can no losse re- paire.|
w: or shall I change my love, for I find power to de- part, and in my rea- son prove I * can com- mand my hart.|
w: 2.~Oft have I dreamed of joy, yet I ne- ver felt the sweete, But tir- ed with an- noy my * griefs each oth- er greete.|
w: Oft have I left my hope, as a wrethe by fate for- lorne. But Love aimes at one scope, And * loft wil stil re- turne:|
 EEB,B, C2 E2 E3 A, B,2 BB D2 ^F2 E3 E D2 D2 B,B, B,2 z2 G,2 A,A, A,2 z2 A,2 E4 z2 E2 z2 D2 z2 D2 z2 C3 DED C2 B,A, E3 D ^C2 z2 D2"^(1)" z2 D2 z2 C2 z2 CDED C2 B,A, E4 C8 :| %2
w: 1.~But if she will pit- tie my de- sire, And my love, my love, re- quite, then e- ver shall shee live my deare de- light. Come, come, come, while I have a heart to de- sire * thee. Come, come, for ei- ther I will love or ad- mire thee.|
w: 2.~He that once loves with a true de- sire ne- ver can, ver can, de- part, for Cu- pid is the king of e- very hart. * * * * * * * * * * * * * * * * * * * * * * * * *|
w: |
w: |
 x32 :: x24 | x16 | x16 | x16 | x14 | x26 :| %9
w: |||||||
w: |||||||
w: |||||||
w: |||||||
V:4
 a2 ae f2 d2 c6 ga g2 e2 a2 A2 e6 ag f2 e2 d2 g2 c6 GA e2 f2 e2 e2 A8 :: %1
w: 1.~What if I ne- ver speede, Shall I straight yeeld to dis- paire, And * still on so- row feede That * can no losse re- paire.|
w: or shall I change my love, for I find power to de- part, and * in my rea- son prove I * can com- mand my hart.|
w: 2.~Oft have I dreamed of joy, yet I ne- ver felt the sweete, But * tir- ed with an- noy my * griefs each oth- er greete.|
w: Oft have I left my hope, as a wrethc by fate for- lorne. But * Love aimes at one scope, And * loft wil stil re- turne:|
 eeee ccAA e6 ee ^f3 g a2 A2 z2 d2 gg g2 z2 c2 ff f2 z2 d2 e4 z2 A2 z2 d2 z2 G2 z2 cc A3 B c2 dd e4 A2 z2 d2 z2 G2 z2 c2 z2 AAAB c2 dd e4 A8 :| %2
w: 1.~But if she will pit- tie my de- sire, And my love * re- quite, then e- ver shall shee live my deare de- light. Come, come, come, while I have a heart to de- sire thee. Come, come, for ei- ther I will love or ad- mire thee.|
w: 2.~He that once loves with a true de- sire ne- ver can * de- part, for Cu- pid is the king of e- very hart. * * * * * * * * * * * * * * * * * * * * * * * *|
w: |
w: |
 x32 :: x24 | x16 | x16 | x16 | x14 | x26 :| %9
w: |||||||
w: |||||||
w: |||||||
w: |||||||

